icons/24x24_calendar_add_outline.svg

<svg xmlns="http://www.w3.org/2000/svg" width="24" height="24" viewBox="0 0 24 24">
  <path fill-rule="evenodd" d="M21,14.0829584 C20.6747915,14.0283988 20.3407122,14 20,14 C19.6592878,14 19.3252085,14.0283988 19,14.0829584 L19,10 L5,10 L5,19 L14.0829584,19 C14.0283988,19.3252085 14,19.6592878 14,20 C14,20.3407122 14.0283988,20.6747915 14.0829584,21 L5,21 C3.8954305,21 3,20.1045695 3,19 L3,7 C3,5.8954305 3.8954305,5 5,5 L7,5 L7,4 C7,3.44771525 7.44771525,3 8,3 C8.55228475,3 9,3.44771525 9,4 L9,5 L15,5 L15,4 C15,3.44771525 15.4477153,3 16,3 C16.5522847,3 17,3.44771525 17,4 L17,5 L19,5 C20.1045695,5 21,5.8954305 21,7 L21,14.0829584 Z M21,19 L23,19 C23.5522847,19 24,19.4477153 24,20 C24,20.5522847 23.5522847,21 23,21 L21,21 L21,23 C21,23.5522847 20.5522847,24 20,24 C19.4477153,24 19,23.5522847 19,23 L19,21 L17,21 C16.4477153,21 16,20.5522847 16,20 C16,19.4477153 16.4477153,19 17,19 L19,19 L19,17 C19,16.4477153 19.4477153,16 20,16 C20.5522847,16 21,16.4477153 21,17 L21,19 Z"/>
</svg>

<svg width="24" height="24" fill="none" xmlns="http://www.w3.org/2000/svg"><path fill-rule="evenodd" clip-rule="evenodd" d="M21 14.083a6.036 6.036 0 0 0-2 0V10H5v9h9.083a6.036 6.036 0 0 0 0 2H5a2 2 0 0 1-2-2V7a2 2 0 0 1 2-2h2V4a1 1 0 0 1 2 0v1h6V4a1 1 0 1 1 2 0v1h2a2 2 0 0 1 2 2v7.083ZM21 19h2a1 1 0 1 1 0 2h-2v2a1 1 0 1 1-2 0v-2h-2a1 1 0 1 1 0-2h2v-2a1 1 0 1 1 2 0v2Z" fill="#000"/></svg>
